gama.ui.shared/icons_svg/light/layer/layer.species.svg

<svg height="24.75" viewBox="-910.056 -4080.723 24.75 24.75" width="24.75" xmlns="http://www.w3.org/2000/svg"><g fill="none"><path d="m-905.8407-4080.348h16.32c2.1208 0 3.84 1.719 3.84 3.84v16.32c0 2.1207-1.7192 3.84-3.84 3.84h-16.32c-2.1207 0-3.84-1.7193-3.84-3.84v-16.32c0-2.121 1.7193-3.84 3.84-3.84z" fill="#66727e"/><path d="m-900.9857-4068.909-3.2442 1.67c-.3996.2056-.6508.6174-.6508 1.067v.624c0 .6627.5373 1.2 1.2001 1.2.2209 0 .4.179.4.4s-.1791.4-.4.4c-1.1046 0-2.0001-.8955-2.0001-2v-.624c0-.7493.4187-1.4355 1.0847-1.7784l2.6862-1.3826c-.8574-.7477-1.3709-1.837-1.3709-3.015 0-2.209 1.7909-4 4-4 1.3413 0 2.5706.6655 3.3104 1.754.1242.1827.0767.4314-.106.5556-.1827.1244-.4315.0768-.5557-.106-.5923-.8716-1.5752-1.4036-2.6487-1.4036-1.7673 0-3.2 1.4326-3.2 3.2 0 1.1293.5895 2.1565 1.5363 2.734.1885.115.2482.361.1331.55-.043.0704-.1045.123-.1744.155zm3.2741 3.4144-3.2656 1.4843c-.4284.1948-.7035.6219-.7035 1.0923v.57c0 .6627.5373 1.2 1.2 1.2h8.8c.6628 0 1.2-.5373 1.2-1.2v-.57c0-.4704-.275-.8975-.7034-1.0923l-3.2656-1.4843c-.4981.2226-1.0501.3466-1.631.3466s-1.1328-.124-1.6309-.3466zm-.8313-.5009c-.9361-.7322-1.5378-1.8721-1.5378-3.1525 0-2.209 1.7909-4 4-4 2.2092 0 4 1.791 4 4 0 1.2804-.6016 2.4203-1.5377 3.1525l2.7653 1.2569c.714.3246 1.1724 1.0366 1.1724 1.8206v.57c0 1.1045-.8954 2-2 2h-8.8c-1.1045 0-2-.8955-2-2v-.57c0-.784.4584-1.496 1.1724-1.8206zm2.4622.0475c1.7673 0 3.2-1.433 3.2-3.2 0-1.7674-1.4327-3.2-3.2-3.2s-3.2 1.4326-3.2 3.2c0 1.767 1.4327 3.2 3.2 3.2z" fill="#fff"/></g></svg>

<?xml version="1.0" encoding="UTF-8" standalone="no"?>
<!DOCTYPE svg PUBLIC "-//W3C//DTD SVG 1.1//EN" "http://www.w3.org/Graphics/SVG/1.1/DTD/svg11.dtd">
<svg version="1.1" xmlns="http://www.w3.org/2000/svg" xmlns:xl="http://www.w3.org/1999/xlink" xmlns:dc="http://purl.org/dc/elements/1.1/" viewBox="-910.0557 -4080.723 24.75 24.75" width="24.75" height="24.75">
  <defs/>
  <g id="SOURCES" stroke-dasharray="none" fill="none" stroke="none" fill-opacity="1" stroke-opacity="1">
    <title>SOURCES</title>
    <g id="SOURCES_Calque_2">
      <title>Calque 2</title>
      <g id="Graphic_8736">
        <title>views/view.other</title>
        <path d="M -905.8407 -4080.348 L -889.5207 -4080.348 C -887.3999 -4080.348 -885.6807 -4078.629 -885.6807 -4076.508 L -885.6807 -4060.188 C -885.6807 -4058.0673 -887.3999 -4056.348 -889.5207 -4056.348 L -905.8407 -4056.348 C -907.9614 -4056.348 -909.6807 -4058.0673 -909.6807 -4060.188 L -909.6807 -4076.508 C -909.6807 -4078.629 -907.9614 -4080.348 -905.8407 -4080.348 Z" fill="#66727e"/>
      </g>
      <g id="Graphic_8737">
        <path d="M -900.9857 -4068.909 L -904.2299 -4067.239 C -904.6295 -4067.0334 -904.8807 -4066.6216 -904.8807 -4066.172 L -904.8807 -4065.548 C -904.8807 -4064.8853 -904.3434 -4064.348 -903.6806 -4064.348 C -903.4597 -4064.348 -903.2806 -4064.169 -903.2806 -4063.948 C -903.2806 -4063.727 -903.4597 -4063.548 -903.6806 -4063.548 C -904.7852 -4063.548 -905.6807 -4064.4435 -905.6807 -4065.548 L -905.6807 -4066.172 C -905.6807 -4066.9213 -905.262 -4067.6075 -904.596 -4067.9504 L -901.9098 -4069.333 C -902.7672 -4070.0807 -903.2807 -4071.17 -903.2807 -4072.348 C -903.2807 -4074.557 -901.4898 -4076.348 -899.2807 -4076.348 C -897.9394 -4076.348 -896.7101 -4075.6825 -895.9703 -4074.594 C -895.8461 -4074.4113 -895.8936 -4074.1626 -896.0763 -4074.0384 C -896.259 -4073.914 -896.5078 -4073.9616 -896.632 -4074.1444 C -897.2243 -4075.016 -898.2072 -4075.548 -899.2807 -4075.548 C -901.048 -4075.548 -902.4807 -4074.1154 -902.4807 -4072.348 C -902.4807 -4071.2187 -901.8912 -4070.1915 -900.9444 -4069.614 C -900.7559 -4069.499 -900.6962 -4069.253 -900.8113 -4069.064 C -900.8543 -4068.9936 -900.9158 -4068.941 -900.9857 -4068.909 Z M -897.7116 -4065.4946 L -900.9772 -4064.0103 C -901.4056 -4063.8155 -901.6807 -4063.3884 -901.6807 -4062.918 L -901.6807 -4062.348 C -901.6807 -4061.6853 -901.1434 -4061.148 -900.4807 -4061.148 L -891.6807 -4061.148 C -891.0179 -4061.148 -890.4807 -4061.6853 -890.4807 -4062.348 L -890.4807 -4062.918 C -890.4807 -4063.3884 -890.7557 -4063.8155 -891.1841 -4064.0103 L -894.4497 -4065.4946 C -894.9478 -4065.272 -895.4998 -4065.148 -896.0807 -4065.148 C -896.6616 -4065.148 -897.2135 -4065.272 -897.7116 -4065.4946 Z M -898.5429 -4065.9955 C -899.479 -4066.7277 -900.0807 -4067.8676 -900.0807 -4069.148 C -900.0807 -4071.357 -898.2898 -4073.148 -896.0807 -4073.148 C -893.8715 -4073.148 -892.0807 -4071.357 -892.0807 -4069.148 C -892.0807 -4067.8676 -892.6823 -4066.7277 -893.6184 -4065.9955 L -890.8531 -4064.7386 C -890.1391 -4064.414 -889.6807 -4063.702 -889.6807 -4062.918 L -889.6807 -4062.348 C -889.6807 -4061.2435 -890.5761 -4060.348 -891.6807 -4060.348 L -900.4807 -4060.348 C -901.5852 -4060.348 -902.4807 -4061.2435 -902.4807 -4062.348 L -902.4807 -4062.918 C -902.4807 -4063.702 -902.0223 -4064.414 -901.3083 -4064.7386 L -898.5429 -4065.9955 Z M -896.0807 -4065.948 C -894.3134 -4065.948 -892.8807 -4067.381 -892.8807 -4069.148 C -892.8807 -4070.9154 -894.3134 -4072.348 -896.0807 -4072.348 C -897.848 -4072.348 -899.2807 -4070.9154 -899.2807 -4069.148 C -899.2807 -4067.381 -897.848 -4065.948 -896.0807 -4065.948 Z" fill="white"/>
      </g>
    </g>
  </g>
</svg>
